public/animalImages/Wiki_letter_w.svg

<svg height="44" width="44" xmlns="http://www.w3.org/2000/svg" xmlns:xlink="http://www.w3.org/1999/xlink"><linearGradient id="a" gradientUnits="userSpaceOnUse" x1="40.778842" x2="3.616085" y1="21.688506" y2="29.289904"><stop offset="0" stop-color="#bbb"/><stop offset="1" stop-color="#f4f4f4"/></linearGradient><g fill-rule="evenodd" transform="translate(-2.152456 -2.693715)"><path d="m12.60406 33.140217c1.448219 5.358355 1.018045 6.99805 7.406335 6.366123 6.038263-.597301 8.646644-3.597889 5.572737-5.295537-3.14141-1.734929-.281406-3.426817 1.652661-4.145393s4.445625-1.500777 5.967511-.471754-1.589147 2.763753.09193 4.747016c1.702773 2.00886 8.784655-1.91781 11.212733-3.17572 2.358125-1.221669.240965-4.811414-1.273961-7.331797-1.553772-2.585011-3.533748-2.776121-5.044916-.671375-1.4696 2.04685-2.957045 1.034169-4.038466-1.6336-1.050722-2.592037.415412-3.420225 2.305954-2.351862 1.890542 1.068362 5.338094-.186655 1.823861-5.466053-3.554898-5.3404868-3.462023-.514148-9.348182.007457-5.973864.529378.140725-5.3540758-8.767694-3.656052-8.823115 1.681764 2.943719 5.338317-3.169004 6.109272-6.199718.781928-10.2606416.525109-8.149791 2.739557 2.069242 2.1708 3.087078 5.232478 1.0590408 6.262719-2.0280364 1.030241-8.3340895-2.815756-6.9726015 4.692551 1.3585852 7.492302 8.2294787-2.06228 9.6718527 3.274448z" fill="url(#a)" stroke="#555753"/><path d="m22.84559 10.166053c-.683419.002602-1.5583.140816-2.65625.3125-8.120423 1.266317 2.789073 5.017164-2.452934 5.924556-6.037322 1.040674-10.7104314.538398-8.6408162 2.700444 2.0288172 2.119432 3.7245802 4.997397.9218752 6.53125-2.0160183 1.103318-8.022391-2.736883-6.7031252 4.15625.4212012 2.195778 1.4293546 2.68113 2.359375 2.5625-.6294047-.372311-1.1192209-.790817-1.390625-2.28125-1.3348908-7.330633 3.3196403-2.359336 6.2768082-3.771447 2.010854-.960226 2.360004-4.398874.331187-6.518305-2.0696152-2.162046 1.8993-1.791493 7.977904-2.554918 5.993308-.752712-5.711683-4.87921 2.320351-6.49908 1.540404-.30981 2.604746-.343991 3.375-.25-.39458-.196789-.921428-.315535-1.71875-.3125zm12.165403 1.459597c-4.426223 3.102647-6.659448 2.576306-7.330806 2.636374 2.347136 1.425189 6.028649-.986607 8.839039-2.001571-.372159-.4366-1.190982-.671089-1.508233-.634803zm5.49908 10.559359c-.750696.032935-1.476779.507214-2.125 1.40625-.450278.624505-1.079514 1.058809-1.520527 1.141735.739833.49794 1.720298.218127 2.520527-.891735.685262-.95041 1.167648-1.393014 1.962738-1.375-.372227-.201683-.463615-.297664-.837738-.28125zm-7.191827 6.895106c2.317157 1.459441-1.192349 3.30526.371094 4.960938.319437.338282.662211.365011 1.382813.359375-.143146-.07936-.330623-.074932-.4375-.195313-1.476362-1.662894 1.484342-3.565639-.007813-4.570312-.397321-.267518-.802684-.503372-1.308594-.554688zm-21.425781 2.148438c.365726.248311.915717 1.067741 1.109375 1.78125 1.080786 3.982032 1.175794 5.875301 3.8125 6.078125-1.71993-.716854-1.887359-2.419552-2.8125-5.828125-.344798-1.270368-1.287267-2.03746-2.109375-2.03125z" fill="#fff"/><path d="m17.808421 20.865915c.099557.127193.095471.393669.322991.348899.231475.032442.547126-.075747.704548.075812 1.97382 1.90032 3.830526 3.973024 5.74579 5.959538.209393.014954.408752.020913.339342-.214072.064224-1.551962.128447-3.103923.192672-4.655884 1.26753 1.327303 2.535061 2.654603 3.802593 3.981906.153381-.049929.43103-.010926.344917-.232248-.039859-2.196887-.186771-4.42561-.119575-6.590659.008389-.270316.129015-.577121.328691-.730601.1379-.105996.359606-.102727.190671-.308487-.07775-.151321-.331608.032058-.484237.023049-.646119.135642-1.29224.271284-1.938362.406925.058039.184574.127284.35139.358978.260851.170639.013592.367828-.088644.521824-.00244.188989.108083.246552.235911.250566.42601.032169 1.524769.15077 3.066785.226156 4.600178-1.200554-1.246343-2.401105-2.492688-3.601659-3.739033-.165075-.185386-.222705-.388607-.135869-.486056.163209-.183156.423617-.345613.738196-.364.110512-.004897-.038473-.390982-.160386-.317169-1.152792.242009-2.305584.484018-3.458375.726027.080257.173728.179952.314739.398968.254889.250949-.001732.50237-.013033.747296.107648.277222.061066.400454.334403.599904.502673.266745.278942.53349.557882.800234.836821-.065659 1.190562-.131317 2.381121-.196976 3.571682-1.224054-1.33643-2.537249-2.647555-3.672165-4.009289-.122194-.146615-.137336-.342438-.029994-.499869.097495-.142992.213085-.211569.403375-.221336.255856.03754-.011704-.275648-.079039-.32772-1.047026.205319-2.094051.410638-3.141075.615955z"/></g></svg>

<?xml version="1.0" encoding="UTF-8" standalone="no"?>
<!-- Created with Inkscape (http://www.inkscape.org/) -->
<svg
   xmlns:svg="http://www.w3.org/2000/svg"
   xmlns="http://www.w3.org/2000/svg"
   xmlns:xlink="http://www.w3.org/1999/xlink"
   version="1.0"
   width="44"
   height="44"
   id="svg2">
  <defs
     id="defs4">
    <linearGradient
       id="linearGradient2779">
      <stop
         style="stop-color:#bbb;stop-opacity:1"
         offset="0"
         id="stop2781" />
      <stop
         style="stop-color:#f4f4f4;stop-opacity:1"
         offset="1"
         id="stop2783" />
    </linearGradient>
    <linearGradient
       x1="47.76152"
       y1="18.860083"
       x2="10.598763"
       y2="26.461481"
       id="linearGradient2785"
       xlink:href="#linearGradient2779"
       gradientUnits="userSpaceOnUse"
       gradientTransform="translate(-6.982678,2.828423)" />
    <linearGradient
       x1="47.76152"
       y1="18.860083"
       x2="10.598763"
       y2="26.461481"
       id="linearGradient1889"
       xlink:href="#linearGradient2779"
       gradientUnits="userSpaceOnUse"
       gradientTransform="translate(-6.982678,2.828423)" />
  </defs>
  <g
     transform="translate(-2.241522,-9.252902)"
     style="display:inline"
     id="layer1">
    <g
       transform="translate(8.906571e-2,6.559187)"
       id="g1884">
      <path
         d="M 12.60406,33.140217 C 14.052279,38.498572 13.622105,40.138267 20.010395,39.50634 C 26.048658,38.909039 28.657039,35.908451 25.583132,34.210803 C 22.441722,32.475874 25.301726,30.783986 27.235793,30.06541 C 29.16986,29.346834 31.681418,28.564633 33.203304,29.593656 C 34.72519,30.622679 31.614157,32.357409 33.295234,34.340672 C 34.998007,36.349532 42.079889,32.422862 44.507967,31.164952 C 46.866092,29.943283 44.748932,26.353538 43.234006,23.833155 C 41.680234,21.248144 39.700258,21.057034 38.18909,23.16178 C 36.71949,25.20863 35.232045,24.195949 34.150624,21.52818 C 33.099902,18.936143 34.566036,18.107955 36.456578,19.176318 C 38.34712,20.24468 41.794672,18.989663 38.280439,13.710265 C 34.725541,8.3697782 34.818416,13.196117 28.932257,13.717722 C 22.958393,14.2471 29.072982,8.3636462 20.164563,10.06167 C 11.341448,11.743434 23.108282,15.399987 16.995559,16.170942 C 10.795841,16.95287 6.7349174,16.696051 8.845768,18.910499 C 10.91501,21.081299 11.932846,24.142977 9.9048088,25.173218 C 7.8767724,26.203459 1.5707193,22.357462 2.9322073,29.865769 C 4.2907925,37.358071 11.161686,27.803489 12.60406,33.140217 z "
         style="fill:url(#linearGradient1889);fill-opacity:1;fill-rule:evenodd;stroke:#555753;stroke-width:1;stroke-linecap:butt;stroke-linejoin:miter;stroke-miterlimit:4;stroke-dasharray:none;stroke-opacity:1"
         id="path1882" />
      <path
         d="M 22.84559,10.166053 C 22.162171,10.168655 21.28729,10.306869 20.18934,10.478553 C 12.068917,11.74487 22.978413,15.495717 17.736406,16.403109 C 11.699084,17.443783 7.0259746,16.941507 9.0955898,19.103553 C 11.124407,21.222985 12.82017,24.10095 10.017465,25.634803 C 8.0014467,26.738121 1.995074,22.89792 3.3143398,29.791053 C 3.735541,31.986831 4.7436944,32.472183 5.6737148,32.353553 C 5.0443101,31.981242 4.5544939,31.562736 4.2830898,30.072303 C 2.948199,22.74167 7.6027301,27.712967 10.559898,26.300856 C 12.570752,25.34063 12.919902,21.901982 10.891085,19.782551 C 8.8214698,17.620505 12.790385,17.991058 18.868989,17.227633 C 24.862297,16.474921 13.157306,12.348423 21.18934,10.728553 C 22.729744,10.418743 23.794086,10.384562 24.56434,10.478553 C 24.16976,10.281764 23.642912,10.163018 22.84559,10.166053 z M 35.010993,11.62565 C 30.58477,14.728297 28.351545,14.201956 27.680187,14.262024 C 30.027323,15.687213 33.708836,13.275417 36.519226,12.260453 C 36.147067,11.823853 35.328244,11.589364 35.010993,11.62565 z M 40.510073,22.185009 C 39.759377,22.217944 39.033294,22.692223 38.385073,23.591259 C 37.934795,24.215764 37.305559,24.650068 36.864546,24.732994 C 37.604379,25.230934 38.584844,24.951121 39.385073,23.841259 C 40.070335,22.890849 40.552721,22.448245 41.347811,22.466259 C 40.975584,22.264576 40.884196,22.168595 40.510073,22.185009 z M 33.318246,29.080115 C 35.635403,30.539556 32.125897,32.385375 33.68934,34.041053 C 34.008777,34.379335 34.351551,34.406064 35.072153,34.400428 C 34.929007,34.321068 34.74153,34.325496 34.634653,34.205115 C 33.158291,32.542221 36.118995,30.639476 34.62684,29.634803 C 34.229519,29.367285 33.824156,29.131431 33.318246,29.080115 z M 11.892465,31.228553 C 12.258191,31.476864 12.808182,32.296294 13.00184,33.009803 C 14.082626,36.991835 14.177634,38.885104 16.81434,39.087928 C 15.09441,38.371074 14.926981,36.668376 14.00184,33.259803 C 13.657042,31.989435 12.714573,31.222343 11.892465,31.228553 z "
         style="fill:white;fill-opacity:1;fill-rule:evenodd;stroke:none;stroke-width:1;stroke-linecap:butt;stroke-linejoin:miter;stroke-miterlimit:4;stroke-dasharray:none;stroke-opacity:1"
         id="path2817" />
      <path
         d="M 17.808421,20.865915 C 17.907978,20.993108 17.903892,21.259584 18.131412,21.214814 C 18.362887,21.247256 18.678538,21.139067 18.83596,21.290626 C 20.80978,23.190946 22.666486,25.26365 24.58175,27.250164 C 24.791143,27.265118 24.990502,27.271077 24.921092,27.036092 C 24.985316,25.48413 25.049539,23.932169 25.113764,22.380208 C 26.381294,23.707511 27.648825,25.034811 28.916357,26.362114 C 29.069738,26.312185 29.347387,26.351188 29.261274,26.129866 C 29.221415,23.932979 29.074503,21.704256 29.141699,19.539207 C 29.150088,19.268891 29.270714,18.962086 29.47039,18.808606 C 29.60829,18.70261 29.829996,18.705879 29.661061,18.500119 C 29.583311,18.348798 29.329453,18.532177 29.176824,18.523168 C 28.530705,18.65881 27.884584,18.794452 27.238462,18.930093 C 27.296501,19.114667 27.365746,19.281483 27.59744,19.190944 C 27.768079,19.204536 27.965268,19.1023 28.119264,19.188504 C 28.308253,19.296587 28.365816,19.424415 28.36983,19.614514 C 28.401999,21.139283 28.5206,22.681299 28.595986,24.214692 C 27.395432,22.968349 26.194881,21.722004 24.994327,20.475659 C 24.829252,20.290273 24.771622,20.087052 24.858458,19.989603 C 25.021667,19.806447 25.282075,19.64399 25.596654,19.625603 C 25.707166,19.620706 25.558181,19.234621 25.436268,19.308434 C 24.283476,19.550443 23.130684,19.792452 21.977893,20.034461 C 22.05815,20.208189 22.157845,20.3492 22.376861,20.28935 C 22.62781,20.287618 22.879231,20.276317 23.124157,20.396998 C 23.401379,20.458064 23.524611,20.731401 23.724061,20.899671 C 23.990806,21.178613 24.257551,21.457553 24.524295,21.736492 C 24.458636,22.927054 24.392978,24.117613 24.327319,25.308174 C 23.103265,23.971744 21.79007,22.660619 20.655154,21.298885 C 20.53296,21.15227 20.517818,20.956447 20.62516,20.799016 C 20.722655,20.656024 20.838245,20.587447 21.028535,20.57768 C 21.284391,20.61522 21.016831,20.302032 20.949496,20.24996 C 19.90247,20.455279 18.855445,20.660598 17.808421,20.865915 z "
         style="fill:black;fill-opacity:1;fill-rule:evenodd;stroke:none;stroke-width:1px;stroke-linecap:butt;stroke-linejoin:miter;stroke-opacity:1"
         id="path2881" />
    </g>
  </g>
</svg>
